epam-assets/icon-sources/18/internal-logo/signature.svg

<svg width="18" height="18" viewBox="0 0 18 18" fill="none" xmlns="http://www.w3.org/2000/svg">
<g id="18/internal-logo/signature">
<path id="icon" fill-rule="evenodd" clip-rule="evenodd" d="M12.4144 7.67149L14.6647 8.48767L12.8108 13.583C12.6359 14.0843 11.6798 15.5651 11.0502 15.8799L10.8753 16.3347C10.8286 16.428 10.7354 16.5096 10.6071 16.5096C10.5605 16.5096 10.5605 16.5096 10.5138 16.5096C10.3739 16.4629 10.2923 16.288 10.3389 16.1481L10.4788 15.74C10.164 15.1104 10.3856 13.2099 10.5255 12.8018L12.4144 7.67149ZM15.6558 2.30802C15.0262 2.08649 14.3033 2.52956 14.1167 3.12421L12.7642 6.82034L15.0145 7.63653L16.3671 3.94039C16.5186 3.43902 16.2388 2.52956 15.6558 2.30802ZM11.5983 7.44996C11.6449 7.4966 11.7382 7.4966 11.7732 7.4966C11.9947 7.4966 12.2279 7.35668 12.2746 7.13514L13.7204 3.29909C13.8137 3.03091 13.6737 2.7161 13.4056 2.57618C13.1374 2.48291 12.8226 2.62282 12.6827 2.891L11.2368 6.72705C11.1436 7.04187 11.2835 7.35668 11.5983 7.44996ZM9.30124 14.6673C9.16132 14.5274 8.98642 14.3525 8.67161 14.2126C8.45008 14.1193 8.17024 14.0727 7.99535 14.0727H7.94871C7.85543 13.7579 7.63389 13.5713 7.27244 13.5363C6.81771 13.4431 6.5029 13.6763 6.23472 13.8045C6.23472 13.6646 6.28136 13.5363 6.328 13.4431C6.42128 13.1283 6.5029 12.7668 6.42128 12.452C6.37464 12.1838 6.15311 11.9973 5.88493 11.9973C5.20867 11.9506 4.67232 12.3121 4.17095 12.6735C3.66958 13.035 3.30813 13.2099 2.99331 13.1283C2.58522 12.9883 2.53858 11.9156 2.77178 10.9595C2.94668 10.0967 3.27315 8.47602 4.07767 7.75312C4.34584 7.53158 4.75394 7.25175 5.06875 7.34502C5.47684 7.48494 5.79165 8.11457 5.83829 8.88411C5.88493 9.19892 6.15311 9.42046 6.46792 9.42046C6.78273 9.37382 7.00427 9.10565 7.00427 8.79083C6.86435 7.57822 6.328 6.57548 5.51182 6.26067C5.01045 6.08577 4.25257 6.03913 3.29647 6.84366C2.25875 7.74146 1.8973 9.32718 1.62912 10.6797C1.48921 11.356 1.17439 13.6529 2.6202 14.201C3.518 14.5158 4.24091 14.0261 4.83555 13.618C4.92883 13.5247 5.05709 13.4781 5.15037 13.3964C5.05709 13.8045 5.01045 14.2593 5.24365 14.6557C5.6051 15.2387 6.14145 15.2853 6.81771 14.8306C6.86435 14.8306 6.86435 14.7839 6.91099 14.7839C6.95763 14.9239 7.08588 15.0521 7.27244 15.1454C7.49398 15.2853 7.77381 15.2853 7.94871 15.2853C8.04198 15.2853 8.1236 15.2853 8.17024 15.2853C8.26352 15.3319 8.34514 15.3786 8.48505 15.5068C8.57833 15.6001 8.65995 15.6817 8.79987 15.775C8.89315 15.8683 9.0214 15.9149 9.16132 15.9149C9.33622 15.9149 9.52277 15.8217 9.61605 15.6934C9.79095 15.4252 9.75597 15.0638 9.47613 14.8772C9.42949 14.8073 9.33622 14.7606 9.30124 14.6673Z" fill="#6C6F80"/>
</g>
</svg>

<svg xmlns="http://www.w3.org/2000/svg" width="18" height="18" fill="none" viewBox="0 0 18 18">
  <path fill="#6C6F80" fill-rule="evenodd" d="m12.414 7.671 2.25.817-1.853 5.095c-.175.501-1.131 1.982-1.76 2.297l-.176.455a.301.301 0 0 1-.268.175h-.093c-.14-.047-.222-.222-.175-.362l.14-.408c-.315-.63-.093-2.53.046-2.938l1.89-5.13Zm3.242-5.363c-.63-.222-1.353.222-1.54.816L12.765 6.82l2.25.817 1.353-3.697c.152-.501-.128-1.41-.711-1.632ZM11.598 7.45c.047.047.14.047.175.047.222 0 .455-.14.502-.362L13.72 3.3c.094-.268-.046-.583-.314-.723-.269-.093-.583.047-.723.315l-1.446 3.836c-.093.315.046.63.361.723Zm-2.297 7.217a1.933 1.933 0 0 0-.63-.454 1.947 1.947 0 0 0-.676-.14H7.95c-.094-.315-.315-.502-.677-.537-.454-.093-.77.14-1.037.269a.82.82 0 0 1 .093-.362c.093-.315.175-.676.093-.991a.539.539 0 0 0-.536-.455c-.676-.046-1.213.315-1.714.677-.501.361-.863.536-1.178.454-.408-.14-.454-1.212-.221-2.168.175-.863.501-2.484 1.306-3.207.268-.221.676-.501.99-.408.409.14.724.77.77 1.54a.629.629 0 0 0 .63.535.629.629 0 0 0 .536-.63c-.14-1.212-.676-2.215-1.492-2.53-.502-.174-1.26-.22-2.216.584-1.037.896-1.4 2.483-1.667 3.836-.14.676-.455 2.973.991 3.521.898.315 1.62-.175 2.216-.583.093-.093.221-.14.314-.222-.093.409-.14.863.094 1.26.361.583.897.63 1.574.175.046 0 .046-.047.093-.047.047.14.175.268.361.361.222.14.502.14.677.14h.221c.094.047.175.094.315.222.093.093.175.175.315.268.093.093.221.14.361.14a.592.592 0 0 0 .455-.222c.175-.268.14-.63-.14-.816-.047-.07-.14-.116-.175-.21Z" clip-rule="evenodd"/>
</svg>
